Resources/Public/Images/viewerControlIcons.svg

<?xml version="1.0" encoding="UTF-8"?>
<svg width="680" height="120" version="1.1" viewBox="0 0 680 120" xml:space="preserve" xmlns="http://www.w3.org/2000/svg"><style>.st0,.st1{stroke-linecap:round}.st0{fill:none;stroke:#666;stroke-width:2;stroke-linejoin:round;stroke-miterlimit:10}.st1{stroke:#fff;stroke-width:1.5}.st1,.st2,.st3{fill:none;stroke-linejoin:round;stroke-miterlimit:10}.st2{stroke:#07c;stroke-width:2;stroke-linecap:round}.st3{stroke:#fff;stroke-width:1.5}.st4{fill:#fff}.st5,.st8{fill:none;stroke:#fff;stroke-width:1.5;stroke-miterlimit:10}.st8{stroke-linecap:round}.st11,.st9{opacity:.5;fill:#fff;enable-background:new}.st11{opacity:.6}</style><path class="st0" d="M22.5 20.5c.9.9 2.1.9 2.9.1l4-4c1.2-1.2 1.2-3.1 0-4.2l-1.8-1.8c-1.2-1.2-3.1-1.2-4.2 0l-4 4c-.8.8-.8 2.1 0 2.8l.1.1M17.5 19.5c-.9-.9-2.1-.9-2.9-.1l-4 4c-1.2 1.2-1.2 3.1 0 4.2l1.8 1.8c1.2 1.2 3.1 1.2 4.2 0l4-4c.8-.8.8-2.1 0-2.8l-.1-.1M16.1 23.9l7.8-7.8"/><circle class="st0" cx="219.7" cy="12.2" r="2.6"/><path class="st0" d="m222.5 12.1h8.5m-22 0h8"/><circle class="st0" cx="214.6" cy="20" r="2.6"/><path class="st0" d="m217 20.1h14m-22 0h3"/><circle class="st0" cx="223.6" cy="27.8" r="2.6"/><path class="st0" d="m226 27.6h5m-22 0h12"/><path class="st1" d="M345.2 102.2c.4.4 1 .4 1.4 0l1.9-1.9c.6-.6.6-1.5 0-2.1l-.9-.9c-.6-.6-1.5-.6-2.1 0l-1.9 1.9c-.4.4-.4 1 0 1.4M342.8 101.8c-.4-.4-1-.4-1.4 0l-1.9 1.9c-.6.6-.6 1.5 0 2.1l.9.9c.6.6 1.5.6 2.1 0l1.9-1.9c.4-.4.4-1 0-1.4M342.1 103.9l3.8-3.8M468.2 102.2c.4.4 1 .4 1.4 0l1.9-1.9c.6-.6.6-1.5 0-2.1l-.9-.9c-.6-.6-1.5-.6-2.1 0l-1.9 1.9c-.4.4-.4 1 0 1.4M465.8 101.8c-.4-.4-1-.4-1.4 0l-1.9 1.9c-.6.6-.6 1.5 0 2.1l.9.9c.6.6 1.5.6 2.1 0l1.9-1.9c.4-.4.4-1 0-1.4M465.1 103.9l3.8-3.8M385.2 102.2c.4.4 1 .4 1.4 0l1.9-1.9c.6-.6.6-1.5 0-2.1l-.9-.9c-.6-.6-1.5-.6-2.1 0l-1.9 1.9c-.4.4-.4 1 0 1.4M382.8 101.8c-.4-.4-1-.4-1.4 0l-1.9 1.9c-.6.6-.6 1.5 0 2.1l.9.9c.6.6 1.5.6 2.1 0l1.9-1.9c.4-.4.4-1 0-1.4M382.1 103.9l3.8-3.8"/><path class="st0" d="M259.1 29.5c-4-.5-7.2-3.9-7.2-8 0-1.3.3-2.5.9-3.6M259.1 13.4h.9c4.5 0 8.1 3.6 8.1 8.1 0 3.6-2.4 6.7-5.7 7.7"/><path class="st0" d="m261.2 10.5-4.2 3 4.2 3m-0.3 53c4-0.5 7.2-3.9 7.2-8 0-1.3-0.3-2.5-0.9-3.6m-6.3-4.5h-0.9c-4.5 0-8.1 3.6-8.1 8.1 0 3.6 2.4 6.7 5.7 7.7"/><path class="st0" d="m258.8 50.5 4.2 3-4.2 3m91-46.3-7.4 7.4m-0.4-7.4h7.8v7.8m-19.6 11.8 7.4-7.4m0.4 7.4h-7.8v-7.8m253.6 34.1-7.4 7.4m-0.4-7.4h7.8v7.8m-283.8-54.3v10.1m-5.5-4.6 5.5-5.5 5.5 5.5m-9.2 15.3v-7.8l7.4 7.3v-7.3"/><circle class="st0" cx="380" cy="20" r="10.5"/><path class="st0" d="m375.5 20h9m-4.5 4.5v-9"/><circle class="st0" cx="420" cy="20" r="10.5"/><path class="st0" d="m415.5 20h9m-354.5 5.7v1.7c0 1.4-1.2 2.6-2.6 2.6h-14.8c-1.4 0-2.6-1.2-2.6-2.6v-1.7m10-0.1v-15.6m6.4 9.2-6.4 6.4-6.4-6.4m46.4-6.3c0-2.1 5.7-3.8 12.6-3.8v18.1c-7 0-12.6 1.7-12.6 3.8 0-2.1-5.7-3.8-12.6-3.8v-18.2c6.9 0 12.6 1.7 12.6 3.9zv17.9m-2.7-15.5c-1.8-0.7-4.3-1.2-7.1-1.4m7.1 4.7c-1.8-0.7-4.3-1.2-7.1-1.4m7.1 4.7c-1.8-0.7-4.3-1.2-7.1-1.4m7.1 4.7c-1.8-0.7-4.3-1.2-7.1-1.4m12.5-8.5c1.8-0.7 4.3-1.2 7.1-1.4m-7.1 4.7c1.8-0.7 4.3-1.2 7.1-1.4m-7.1 4.7c1.8-0.7 4.3-1.2 7.1-1.4m-7.1 4.7c1.8-0.7 4.3-1.2 7.1-1.4m59.7-13.7h4.7v4.7h-4.7zm8.1 0h4.7v4.7h-4.7zm8.2 0h4.7v4.7h-4.7zm-16.3 7.5h4.7v4.7h-4.7zm8.1 0h4.7v4.7h-4.7zm8.2 0h4.7v4.7h-4.7zm-16.3 7.6h4.7v4.7h-4.7zm8.1 0h4.7v4.7h-4.7zm8.2 0h4.7v4.7h-4.7z"/><path class="st2" d="M62.5 76.7v8.2l-9.7 9.8H35.1v7.8L17.5 80l17.6-22.5v7.8h27.4z"/><path class="st2" d="M52.4 94.2v-9.6H62M103.4 63v4.4L96.6 60l6.8-7.4V57"/><path class="st2" d="M107.4 52.6v14.8l-6.7-7.4zM99.3 63v4.4L92.6 60l6.7-7.4V57M105 92.6v14.8l-6.8-7.4zM95 92.6v14.8M177.5 76.7v8.2l9.7 9.8h17.7v7.8L222.5 80l-17.6-22.5v7.8h-27.4z"/><path class="st2" d="M187.6 94.2v-9.6H178M136.6 62.9l-.1 4.4 6.8-7.4-6.7-7.4v4.4"/><path class="st2" d="m132.6 52.4-0.1 14.9 6.8-7.4zm8 10.5v4.4l6.8-7.4-6.7-7.4v4.4m-5.7 35.7v14.8l6.8-7.4zm10 0v14.8"/><path class="st1" d="M377.1 68.4h-3.4c-.8 0-1.5-.7-1.5-1.5V53.4"/><path class="st1" d="M386.2 51.6h-12.5c-.8 0-1.5.7-1.5 1.5s.7 1.5 1.5 1.5h12.5v2.3"/><circle class="st1" cx="383.2" cy="64" r="4.4"/><path class="st1" d="M383.2 65.9v-3.7M381.8 64.4l1.4 1.5 1.5-1.5M343.2 51.6h-9.8c-.8 0-1.5.7-1.5 1.5V67c0 .8.7 1.5 1.5 1.5h4.4"/><circle class="st1" cx="343.5" cy="64" r="4.4"/><path class="st1" d="m343.5 65.9v-3.7m-1.5 2.2 1.5 1.5 1.5-1.5m-9.9 1.1h0.5m-0.5-10.8h7.6m-7.6 2.7h4.3m-4.3 2.7h1.6m-1.6 2.7h0.3m41.7 45.6h-3.4c-0.8 0-1.5-0.7-1.5-1.5v-13.5"/><path class="st1" d="m386.2 91.6h-12.5c-0.8 0-1.5 0.7-1.5 1.5s0.7 1.5 1.5 1.5h12.5m-43-3h-9.8c-0.8 0-1.5 0.7-1.5 1.5v13.9c0 0.8 0.7 1.5 1.5 1.5h4.4m-2.7-3h0.5m-0.5-10.8h7.6m-7.6 2.7h5.3m-5.3 2.7h2.6m-2.6 2.7h1.3m-33.4-51.3v5m-5.2-5v17m9.6-17h-12.6c-2.5 0-4.5 2-4.5 4.5s2 4.5 4.5 4.5h3"/><circle class="st1" cx="305.1" cy="63.7" r="4.4"/><path class="st1" d="m305.1 65.6v-3.7m-1.4 2.2 1.4 1.5 1.5-1.5"/><path class="st0" d="M272 98.2v4.5l-5.3 5.3H257v4.3l-9.6-12.3 9.6-12.3V92h15v6.2z"/><path class="st0" d="m267 108v-5h5m16-4.8v4.5l5.3 5.3h9.7v4.3l9.6-12.3-9.6-12.3v4.3h-15z"/><path class="st0" d="m293 108v-5h-5"/><path class="st3" d="m428 52.7-16.4 6.8 6.4 2.5 10-9.3z"/><path class="st3" d="M428 52.7l-2.9 13.2L418 62zM418 62v5.7l2.5-4.3"/><path class="st1" d="M428.2 102.2c.4.4 1 .4 1.4 0l1.9-1.9c.6-.6.6-1.5 0-2.1l-.9-.9c-.6-.6-1.5-.6-2.1 0l-1.9 1.9c-.4.4-.4 1 0 1.4M425.8 101.8c-.4-.4-1-.4-1.4 0l-1.9 1.9c-.6.6-.6 1.5 0 2.1l.9.9c.6.6 1.5.6 2.1 0l1.9-1.9c.4-.4.4-1 0-1.4M425.1 103.9l3.8-3.8"/><ellipse class="st1" cx="420.4" cy="93.8" rx="7.9" ry="3.3"/><path class="st1" d="m421.7 100.5h-1.2c-4.4 0-7.9-1.5-7.9-3.3m5.9 7c-3.4-0.4-6-1.7-6-3.2"/><path class="st1" d="m420.4 108c-4.4 0-7.9-1.5-7.9-3.3v-10.9m48.5 7.3h-8.3v-8.9h5m3.6 0h5v2"/><path class="st1" d="m457.7 91.5h3.7v1.5h-3.7zm3.2 9.6h-8.2c-0.4 0-0.7 0.3-0.7 0.7s0.3 0.7 0.7 0.7h6.4m0 0.1v4.4m-4.5 0 2.2-4.4m2.3-12.6v1.5m9.2-31.7h-7v-8.7h4.4l2.6 2.6z"/><path class="st1" d="m465.7 51.1v2.6h2.6m0 17.5h-7v-8.8h4.4l2.6 2.6z"/><path class="st1" d="m465.7 62.4v2.6h2.6m-15.7-13.9v0.8m0 4.4v0.9m0-3.5v0.9h0.8m-0.8 4.3v0.9m0 1.8v0.8m0 1.8v0.8m0 1.8v0.9h0.8m1.8-13.1h0.9m1.7 0h0.9m1.7 0h0.9m-6.1 13.1h0.9m1.7 0h0.9m1.7 0h0.9"/><circle class="st1" cx="459.9" cy="20" r="8"/><path class="st1" d="M458.3 24.4h3.9M459 18.6h1.2V24"/><path class="st3" d="M459.9 15.7c-.2 0-.3.1-.3.3 0 .2.1.3.3.3.2 0 .3-.1.3-.3s-.1-.3-.3-.3z"/><circle class="st4" cx="499.6" cy="20" r="8"/><path class="st4" d="m499.6 26.5v-13c3.6 0 6.5 2.9 6.5 6.5s-2.9 6.5-6.5 6.5z"/><path class="st5" d="M490 52.3h19.2v17.5H490V52.3z"/><path class="st4" d="M490.8 52.5h4.4V70h-4.4V52.5z"/><path d="M495.2 52.5h4.4V70h-4.4V52.5z" fill="#fff" opacity=".66"/><path d="M499.6 52.5h4.4V70h-4.4V52.5z" fill="#fff" opacity=".33"/><path class="st8" d="m499.6 90.3v0.9m0 17.6v0.9"/><circle class="st4" cx="499.6" cy="100" r="5.5"/><path class="st8" d="m506.4 93.2-0.5 0.6m-12.5 12.4-0.6 0.6m13.6 0-0.5-0.6m-12.5-12.4-0.6-0.6m16.5 6.8h-0.9m-17.6 0h-0.9"/><path class="st4" d="M531.3 12h3.8v3.8h-3.8V12z"/><path class="st9" d="M537.4 12h3.8v3.8h-3.8V12z"/><path d="M543.5 12h3.8v3.8h-3.8V12z" fill="#fff" opacity=".3"/><path class="st11" d="m531.3 18.1h3.8v3.8h-3.8v-3.8z"/><path d="m537.4 18.1h3.8v3.8h-3.8v-3.8z" fill="#fff" opacity=".2"/><path class="st11" d="m543.5 18.1h3.8v3.8h-3.8v-3.8z"/><path d="M531.3 24.2h3.8V28h-3.8v-3.8z" fill="#fff" opacity=".4"/><path class="st9" d="M537.4 24.2h3.8V28h-3.8v-3.8z"/><path class="st4" d="M543.5 24.2h3.8V28h-3.8v-3.8z"/><path class="st5" d="M532.1 54.5h14.5v13.1h-14.5V54.5z"/><path class="st1" d="m540.8 92.5-3.4 2.4 3.4 2.4"/><path class="st1" d="m539.3 94.7c3.5 0 6.4 2.9 6.4 6.4s-2.9 6.4-6.4 6.4-6.4-2.9-6.4-6.4"/><path class="st4" d="M532.1 67.7V54.5h14.5"/><circle class="st0" cx="577.4" cy="18.6" r="8.2"/><path class="st0" d="m589.2 30.5-6.1-6.1m38.7 74.6h-11m5.9-5.3 5.5 5.5-5.5 5.5"/><path class="st0" d="M613 92.9V88h10.7l5.3 5.3V110h-16v-5"/><path class="st0" d="m629 93h-5v-5m0.3-63.7c-1.6 1.6-3.9 2.6-6.4 2.6-5 0-9-4-9-9s4-9 9-9 9 4 9 9c0 2.5-1 4.8-2.6 6.4m0.2 0.2 6.4 6.4"/><path class="st0" d="m611.9 18.9v-3h12v3m-6 11.1v2m0-16.1v8m-2.5 8.1h5"/><path class="st2" d="m589.4 104.5-5 2-2 5-14-14v-7h7zm-18-17h7l13 13-1.5 0.5"/><circle class="st2" cx="572.9" cy="95" r="1.5"/><path class="st0" d="m624.6 69.4-9.4-9.4 9.4-9.4"/><path class="st0" d="m144.7 23.5c-1.7 1.7-4.1 2.8-6.7 2.8-5.2 0-9.5-4.3-9.5-9.5s4.3-9.5 9.5-9.5 9.5 4.3 9.5 9.5c0 2.6-1.1 5-2.8 6.7l6.8 6.8"/><path class="st0" d="m132.5 18.3v-3h12v3m-6 12v2m0-17v7m-2.5 10h5"/><path class="st1" d="m660.2 93.6v15.1m-2.9 0h5.8m-13.6-9 3.4-8 3.4 8m5.3-7.6c0 0.8-0.7 1.5-1.5 1.5s-1.5-0.7-1.5-1.5 0.7-1.5 1.5-1.5c0.9 0.1 1.5 0.7 1.5 1.5zm-8.7 11.2c1.9 0 3.4-1.5 3.4-3.6h-6.8c0 2.1 1.5 3.6 3.4 3.6zm18.9-3.6-3.4-8-3.4 8m3.4 3.6c-1.9 0-3.4-1.5-3.4-3.6h6.8c0 2.1-1.5 3.6-3.4 3.6zm-9.6-11.6h-7.4m10.2 0h8.3"/><g transform="matrix(.037264 0 0 .037264 659.06 20.148)" fill="#666" fill-rule="evenodd"><path d="m-269.37-328.32c-17.035 0-30.426 13.687-30.426 30.723v407.74c0 15.212 13.39 28.586 30.426 28.586h351.03v-28.586h-351.03v-333.54h423.56v191.65l30.709-3.4062v-262.44c0-17.035-13.375-30.723-30.709-30.723zm0 30.723h45.904v43.768h-45.904zm120.11 0h45.889v43.768h-45.889zm122.22 0h45.92v43.768h-45.92zm120.11 0h45.906v43.768h-45.906zm-224.64 145.74c-10.175-0.27108-17.689 7.2019-17.689 19.979v150.51c0 17.318 13.358 24.94 28.57 17.318l156.6-78.137c15.197-7.6062 15.197-20.98 0-28.586l-156.6-78.137c-3.8031-1.9016-7.4893-2.853-10.881-2.9434zm316.47 156.03-30.709 3.4062v32.609l30.709-3.5195zm0 71.838-24.115 2.7637v59.277c14.015-2.877 24.115-14.692 24.115-27.908zm-64.154 34.133v28.586h0.95899v-28.586z"/><path d="m256.91 263.22c0-33.904 27.747-61.651 61.639-61.651h9.0886c3.1842 1.4716 6.1433 0 9.3295-1.4716 3.1987-3.1987 4.671-6.1438 4.671-9.3299v-138.52c0-3.188-1.4716-7.6161-4.671-9.0885-1.4608-3.1843-4.6584-3.1843-9.3295-3.1843l-175.6 20.132c-6.1434 0-10.802 5.9023-10.802 12.033v221.77c0 32.418-29.233 60.166-61.651 60.166-35.364 0-63.111-29.461-63.111-63.111 0-33.904 27.747-61.651 63.111-61.651h9.3295c2.9432 0 6.1434 0 9.0885-3.188 1.4716-1.4716 3.1987-4.671 3.1987-7.6157v-224.72l279-30.946v303.32c0 32.419-27.76 60.166-61.651 60.166s-61.639-27.747-61.639-63.111" style="mix-blend-mode:normal;paint-order:stroke fill markers"/></g></svg>

<svg version="1.1" id="Ebene_1" xmlns="http://www.w3.org/2000/svg" x="0" y="0" viewBox="0 0 680 120" width="680" height="120" xml:space="preserve"><style>.st0,.st1{stroke-linecap:round}.st0{fill:none;stroke:#666;stroke-width:2;stroke-linejoin:round;stroke-miterlimit:10}.st1{stroke:#fff;stroke-width:1.5}.st1,.st2,.st3{fill:none;stroke-linejoin:round;stroke-miterlimit:10}.st2{stroke:#07c;stroke-width:2;stroke-linecap:round}.st3{stroke:#fff;stroke-width:1.5}.st4{fill:#fff}.st5,.st8{fill:none;stroke:#fff;stroke-width:1.5;stroke-miterlimit:10}.st8{stroke-linecap:round}.st11,.st9{opacity:.5;fill:#fff;enable-background:new}.st11{opacity:.6}</style><path class="st0" d="M22.5 20.5c.9.9 2.1.9 2.9.1l4-4c1.2-1.2 1.2-3.1 0-4.2l-1.8-1.8c-1.2-1.2-3.1-1.2-4.2 0l-4 4c-.8.8-.8 2.1 0 2.8l.1.1M17.5 19.5c-.9-.9-2.1-.9-2.9-.1l-4 4c-1.2 1.2-1.2 3.1 0 4.2l1.8 1.8c1.2 1.2 3.1 1.2 4.2 0l4-4c.8-.8.8-2.1 0-2.8l-.1-.1M16.1 23.9l7.8-7.8"/><circle class="st0" cx="219.7" cy="12.2" r="2.6"/><path class="st0" d="M222.5 12.1h8.5M209 12.1h8"/><circle class="st0" cx="214.6" cy="20" r="2.6"/><path class="st0" d="M217 20.1h14M209 20.1h3"/><circle class="st0" cx="223.6" cy="27.8" r="2.6"/><path class="st0" d="M226 27.6h5M209 27.6h12"/><path class="st1" d="M345.2 102.2c.4.4 1 .4 1.4 0l1.9-1.9c.6-.6.6-1.5 0-2.1l-.9-.9c-.6-.6-1.5-.6-2.1 0l-1.9 1.9c-.4.4-.4 1 0 1.4M342.8 101.8c-.4-.4-1-.4-1.4 0l-1.9 1.9c-.6.6-.6 1.5 0 2.1l.9.9c.6.6 1.5.6 2.1 0l1.9-1.9c.4-.4.4-1 0-1.4M342.1 103.9l3.8-3.8M468.2 102.2c.4.4 1 .4 1.4 0l1.9-1.9c.6-.6.6-1.5 0-2.1l-.9-.9c-.6-.6-1.5-.6-2.1 0l-1.9 1.9c-.4.4-.4 1 0 1.4M465.8 101.8c-.4-.4-1-.4-1.4 0l-1.9 1.9c-.6.6-.6 1.5 0 2.1l.9.9c.6.6 1.5.6 2.1 0l1.9-1.9c.4-.4.4-1 0-1.4M465.1 103.9l3.8-3.8M385.2 102.2c.4.4 1 .4 1.4 0l1.9-1.9c.6-.6.6-1.5 0-2.1l-.9-.9c-.6-.6-1.5-.6-2.1 0l-1.9 1.9c-.4.4-.4 1 0 1.4M382.8 101.8c-.4-.4-1-.4-1.4 0l-1.9 1.9c-.6.6-.6 1.5 0 2.1l.9.9c.6.6 1.5.6 2.1 0l1.9-1.9c.4-.4.4-1 0-1.4M382.1 103.9l3.8-3.8"/><path class="st0" d="M259.1 29.5c-4-.5-7.2-3.9-7.2-8 0-1.3.3-2.5.9-3.6M259.1 13.4h.9c4.5 0 8.1 3.6 8.1 8.1 0 3.6-2.4 6.7-5.7 7.7"/><path class="st0" d="M261.2 10.5l-4.2 3 4.2 3M260.9 69.5c4-.5 7.2-3.9 7.2-8 0-1.3-.3-2.5-.9-3.6M260.9 53.4h-.9c-4.5 0-8.1 3.6-8.1 8.1 0 3.6 2.4 6.7 5.7 7.7"/><path class="st0" d="M258.8 50.5l4.2 3-4.2 3M349.8 10.2l-7.4 7.4M342 10.2h7.8V18M330.2 29.8l7.4-7.4M338 29.8h-7.8V22M583.8 56.1l-7.4 7.4M576 56.1h7.8v7.8M300 9.6v10.1M294.5 15.1l5.5-5.5 5.5 5.5M296.3 30.4v-7.8l7.4 7.3v-7.3"/><circle class="st0" cx="380" cy="20" r="10.5"/><path class="st0" d="M375.5 20h9M380 24.5v-9"/><circle class="st0" cx="420" cy="20" r="10.5"/><path class="st0" d="M415.5 20h9M70 25.7v1.7c0 1.4-1.2 2.6-2.6 2.6H52.6c-1.4 0-2.6-1.2-2.6-2.6v-1.7M60 25.6V10M66.4 19.2L60 25.6l-6.4-6.4M100 12.9c0-2.1 5.7-3.8 12.6-3.8v18.1c-7 0-12.6 1.7-12.6 3.8 0-2.1-5.7-3.8-12.6-3.8V9c6.9 0 12.6 1.7 12.6 3.9zM100 12.9v17.9M97.3 15.3c-1.8-.7-4.3-1.2-7.1-1.4M97.3 18.6c-1.8-.7-4.3-1.2-7.1-1.4M97.3 21.9c-1.8-.7-4.3-1.2-7.1-1.4M97.3 25.2c-1.8-.7-4.3-1.2-7.1-1.4M102.7 15.3c1.8-.7 4.3-1.2 7.1-1.4M102.7 18.6c1.8-.7 4.3-1.2 7.1-1.4M102.7 21.9c1.8-.7 4.3-1.2 7.1-1.4M102.7 25.2c1.8-.7 4.3-1.2 7.1-1.4M169.5 10.1h4.7v4.7h-4.7zM177.6 10.1h4.7v4.7h-4.7zM185.8 10.1h4.7v4.7h-4.7zM169.5 17.6h4.7v4.7h-4.7zM177.6 17.6h4.7v4.7h-4.7zM185.8 17.6h4.7v4.7h-4.7zM169.5 25.2h4.7v4.7h-4.7zM177.6 25.2h4.7v4.7h-4.7zM185.8 25.2h4.7v4.7h-4.7z"/><path class="st2" d="M62.5 76.7v8.2l-9.7 9.8H35.1v7.8L17.5 80l17.6-22.5v7.8h27.4z"/><path class="st2" d="M52.4 94.2v-9.6H62M103.4 63v4.4L96.6 60l6.8-7.4V57"/><path class="st2" d="M107.4 52.6v14.8l-6.7-7.4zM99.3 63v4.4L92.6 60l6.7-7.4V57M105 92.6v14.8l-6.8-7.4zM95 92.6v14.8M177.5 76.7v8.2l9.7 9.8h17.7v7.8L222.5 80l-17.6-22.5v7.8h-27.4z"/><path class="st2" d="M187.6 94.2v-9.6H178M136.6 62.9l-.1 4.4 6.8-7.4-6.7-7.4v4.4"/><path class="st2" d="M132.6 52.4l-.1 14.9 6.8-7.4zM140.6 62.9v4.4l6.8-7.4-6.7-7.4v4.4M135 92.6v14.8l6.8-7.4zM145 92.6v14.8"/><path class="st1" d="M377.1 68.4h-3.4c-.8 0-1.5-.7-1.5-1.5V53.4"/><path class="st1" d="M386.2 51.6h-12.5c-.8 0-1.5.7-1.5 1.5s.7 1.5 1.5 1.5h12.5v2.3"/><circle class="st1" cx="383.2" cy="64" r="4.4"/><path class="st1" d="M383.2 65.9v-3.7M381.8 64.4l1.4 1.5 1.5-1.5M343.2 51.6h-9.8c-.8 0-1.5.7-1.5 1.5V67c0 .8.7 1.5 1.5 1.5h4.4"/><circle class="st1" cx="343.5" cy="64" r="4.4"/><path class="st1" d="M343.5 65.9v-3.7M342 64.4l1.5 1.5 1.5-1.5M335.1 65.5h.5M335.1 54.7h7.6M335.1 57.4h4.3M335.1 60.1h1.6M335.1 62.8h.3M377.1 108.4h-3.4c-.8 0-1.5-.7-1.5-1.5V93.4"/><path class="st1" d="M386.2 91.6h-12.5c-.8 0-1.5.7-1.5 1.5s.7 1.5 1.5 1.5h12.5M343.2 91.6h-9.8c-.8 0-1.5.7-1.5 1.5V107c0 .8.7 1.5 1.5 1.5h4.4M335.1 105.5h.5M335.1 94.7h7.6M335.1 97.4h5.3M335.1 100.1h2.6M335.1 102.8h1.3M303 51.5v5M297.8 51.5v17M307.4 51.5h-12.6c-2.5 0-4.5 2-4.5 4.5s2 4.5 4.5 4.5h3"/><circle class="st1" cx="305.1" cy="63.7" r="4.4"/><path class="st1" d="M305.1 65.6v-3.7M303.7 64.1l1.4 1.5 1.5-1.5"/><path class="st0" d="M272 98.2v4.5l-5.3 5.3H257v4.3l-9.6-12.3 9.6-12.3V92h15v6.2z"/><path class="st0" d="M267 108v-5h5M288 98.2v4.5l5.3 5.3h9.7v4.3l9.6-12.3-9.6-12.3V92h-15z"/><path class="st0" d="M293 108v-5h-5"/><path class="st3" d="M428 52.7l-16.4 6.8L418 62l10-9.3z"/><path class="st3" d="M428 52.7l-2.9 13.2L418 62zM418 62v5.7l2.5-4.3"/><path class="st1" d="M428.2 102.2c.4.4 1 .4 1.4 0l1.9-1.9c.6-.6.6-1.5 0-2.1l-.9-.9c-.6-.6-1.5-.6-2.1 0l-1.9 1.9c-.4.4-.4 1 0 1.4M425.8 101.8c-.4-.4-1-.4-1.4 0l-1.9 1.9c-.6.6-.6 1.5 0 2.1l.9.9c.6.6 1.5.6 2.1 0l1.9-1.9c.4-.4.4-1 0-1.4M425.1 103.9l3.8-3.8"/><ellipse class="st1" cx="420.4" cy="93.8" rx="7.9" ry="3.3"/><path class="st1" d="M421.7 100.5h-1.2c-4.4 0-7.9-1.5-7.9-3.3M418.5 104.2c-3.4-.4-6-1.7-6-3.2"/><path class="st1" d="M420.4 108c-4.4 0-7.9-1.5-7.9-3.3V93.8M461 101.1h-8.3v-8.9h5M461.3 92.2h5v2"/><path class="st1" d="M457.7 91.5h3.7V93h-3.7zM460.9 101.1h-8.2c-.4 0-.7.3-.7.7 0 .4.3.7.7.7h6.4M459.1 102.6v4.4M454.6 107l2.2-4.4M459.1 90v1.5M468.3 59.8h-7v-8.7h4.4l2.6 2.6z"/><path class="st1" d="M465.7 51.1v2.6h2.6M468.3 71.2h-7v-8.8h4.4l2.6 2.6z"/><path class="st1" d="M465.7 62.4V65h2.6M452.6 51.1v.8M452.6 56.3v.9M452.6 53.7v.9h.8M452.6 58.9v.9M452.6 61.6v.8M452.6 64.2v.8M452.6 66.8v.9h.8M455.2 54.6h.9M457.8 54.6h.9M460.4 54.6h.9M455.2 67.7h.9M457.8 67.7h.9M460.4 67.7h.9"/><circle class="st1" cx="459.9" cy="20" r="8"/><path class="st1" d="M458.3 24.4h3.9M459 18.6h1.2V24"/><path class="st3" d="M459.9 15.7c-.2 0-.3.1-.3.3 0 .2.1.3.3.3.2 0 .3-.1.3-.3s-.1-.3-.3-.3z"/><circle class="st4" cx="499.6" cy="20" r="8"/><path class="st4" d="M499.6 26.5v-13c3.6 0 6.5 2.9 6.5 6.5s-2.9 6.5-6.5 6.5z"/><path class="st5" d="M490 52.3h19.2v17.5H490V52.3z"/><path class="st4" d="M490.8 52.5h4.4V70h-4.4V52.5z"/><path d="M495.2 52.5h4.4V70h-4.4V52.5z" opacity=".66" fill="#fff"/><path d="M499.6 52.5h4.4V70h-4.4V52.5z" opacity=".33" fill="#fff"/><path class="st8" d="M499.6 90.3v.9M499.6 108.8v.9"/><circle class="st4" cx="499.6" cy="100" r="5.5"/><path class="st8" d="M506.4 93.2l-.5.6M493.4 106.2l-.6.6M506.4 106.8l-.5-.6M493.4 93.8l-.6-.6M509.3 100h-.9M490.8 100h-.9"/><path class="st4" d="M531.3 12h3.8v3.8h-3.8V12z"/><path class="st9" d="M537.4 12h3.8v3.8h-3.8V12z"/><path d="M543.5 12h3.8v3.8h-3.8V12z" opacity=".3" fill="#fff"/><path class="st11" d="M531.3 18.1h3.8v3.8h-3.8v-3.8z"/><path d="M537.4 18.1h3.8v3.8h-3.8v-3.8z" opacity=".2" fill="#fff"/><path class="st11" d="M543.5 18.1h3.8v3.8h-3.8v-3.8z"/><path d="M531.3 24.2h3.8V28h-3.8v-3.8z" opacity=".4" fill="#fff"/><path class="st9" d="M537.4 24.2h3.8V28h-3.8v-3.8z"/><path class="st4" d="M543.5 24.2h3.8V28h-3.8v-3.8z"/><path class="st5" d="M532.1 54.5h14.5v13.1h-14.5V54.5z"/><path class="st1" d="M540.8 92.5l-3.4 2.4 3.4 2.4"/><path class="st1" d="M539.3 94.7c3.5 0 6.4 2.9 6.4 6.4s-2.9 6.4-6.4 6.4-6.4-2.9-6.4-6.4"/><path class="st4" d="M532.1 67.7V54.5h14.5"/><circle class="st0" cx="577.4" cy="18.6" r="8.2"/><path class="st0" d="M589.2 30.5l-6.1-6.1M621.8 99h-11M616.7 93.7l5.5 5.5-5.5 5.5"/><path class="st0" d="M613 92.9V88h10.7l5.3 5.3V110h-16v-5"/><path class="st0" d="M629 93h-5v-5M624.3 24.3c-1.6 1.6-3.9 2.6-6.4 2.6-5 0-9-4-9-9s4-9 9-9 9 4 9 9c0 2.5-1 4.8-2.6 6.4M624.5 24.5l6.4 6.4"/><path class="st0" d="M611.9 18.9v-3h12v3M617.9 30v2M617.9 15.9v8M615.4 32h5"/><g><path class="st2" d="M589.4 104.5l-5 2-2 5-14-14v-7h7zM571.4 87.5h7l13 13-1.5.5"/><circle class="st2" cx="572.9" cy="95" r="1.5"/></g><path class="st0" d="M624.6 69.4l-9.4-9.4 9.4-9.4"/><g><path class="st0" d="M144.7 23.5c-1.7 1.7-4.1 2.8-6.7 2.8-5.2 0-9.5-4.3-9.5-9.5s4.3-9.5 9.5-9.5 9.5 4.3 9.5 9.5c0 2.6-1.1 5-2.8 6.7M144.7 23.5l6.8 6.8"/><path class="st0" d="M132.5 18.3v-3h12v3M138.5 30.3v2M138.5 15.3v7M136 32.3h5"/></g><g><path class="st1" d="M660.2 93.6v15.1M657.3 108.7h5.8M649.5 99.7l3.4-8 3.4 8M661.6 92.1c0 .8-.7 1.5-1.5 1.5s-1.5-.7-1.5-1.5.7-1.5 1.5-1.5c.9.1 1.5.7 1.5 1.5zM652.9 103.3c1.9 0 3.4-1.5 3.4-3.6h-6.8c0 2.1 1.5 3.6 3.4 3.6zM671.8 99.7l-3.4-8-3.4 8M668.4 103.3c-1.9 0-3.4-1.5-3.4-3.6h6.8c0 2.1-1.5 3.6-3.4 3.6zM658.8 91.7h-7.4M661.6 91.7h8.3"/></g></svg>
